src/assets/duotone/Bootstrap.svg

<svg width="24" height="24" viewBox="0 0 24 24"  xmlns="http://www.w3.org/2000/svg">
<path opacity="0.4" d="M17 3H7C5.34 3 4 4.34 4 6V6.84C4 7.61 3.88 8.37 3.63 9.1C3.25 10.23 2.19 11 1 11V13C2.19 13 3.25 13.76 3.63 14.9C3.87 15.63 4 16.4 4 17.16V18C4 19.66 5.34 21 7 21H17C18.66 21 20 19.66 20 18V17.16C20 16.39 20.12 15.63 20.37 14.9C20.75 13.77 21.81 13 23 13V11C21.81 11 20.75 10.24 20.37 9.1C20.13 8.37 20 7.6 20 6.84V6C20 4.34 18.66 3 17 3Z" />
<path d="M12.67 16.9198H9.75C9.34 16.9198 9 16.5798 9 16.1698V7.83984C9 7.42984 9.34 7.08984 9.75 7.08984H12.67C14.23 7.08984 15.5 8.35985 15.5 9.91985C15.5 10.7398 15.15 11.4898 14.58 11.9998C15.14 12.5198 15.5 13.2598 15.5 14.0798C15.5 15.6498 14.23 16.9198 12.67 16.9198ZM10.5 15.4198H12.67C13.41 15.4198 14 14.8198 14 14.0898C14 13.3598 13.4 12.7598 12.67 12.7598H10.5V15.4198ZM10.5 11.2498H12.67C13.41 11.2498 14 10.6498 14 9.91985C14 9.18985 13.4 8.58984 12.67 8.58984H10.5V11.2498Z" />
</svg>

<?xml version="1.0" encoding="UTF-8"?>
<svg width="24" height="24" viewBox="0 0 24 24" xmlns="http://www.w3.org/2000/svg">
 <path d="m17 3h-10c-1.66 0-3 1.34-3 3v0.84c0 0.77-0.12 1.53-0.37 2.26-0.38 1.13-1.44 1.9-2.63 1.9v2c1.19 0 2.25 0.76 2.63 1.9 0.24 0.73 0.37 1.5 0.37 2.26v0.84c0 1.66 1.34 3 3 3h10c1.66 0 3-1.34 3-3v-0.84c0-0.77 0.12-1.53 0.37-2.26 0.38-1.13 1.44-1.9 2.63-1.9v-2c-1.19 0-2.25-0.76-2.63-1.9-0.24-0.73-0.37-1.5-0.37-2.26v-0.84c0-1.66-1.34-3-3-3z" opacity=".4"/>
 <path d="m12.67 16.92h-2.92c-0.41 0-0.75-0.34-0.75-0.75v-8.33c0-0.41 0.34-0.75 0.75-0.75h2.92c1.56 0 2.83 1.27 2.83 2.83 0 0.81995-0.35 1.57-0.92 2.08 0.56 0.52 0.92 1.26 0.92 2.08 0 1.57-1.27 2.84-2.83 2.84zm-2.17-1.5h2.17c0.74 0 1.33-0.6 1.33-1.33s-0.6-1.33-1.33-1.33h-2.17v2.66zm0-4.17h2.17c0.74 0 1.33-0.6 1.33-1.33 0-0.73-0.6-1.33-1.33-1.33h-2.17v2.66z"/>
</svg>
